app/dist/common/images/integrated-diagnostics-plc.svg

<svg height="18" viewBox="0 0 18 18" width="18" xmlns="http://www.w3.org/2000/svg"><path d="m0 0h18v18h-18z" fill="#f0f3fa"/><path d="m15 5.21h-12v7.83h12z" fill="#bf1e2d"/><g fill="#f0f3fa"><path d="m11 6h-1v6h1zm3 0h-1v6h1z"/><path d="m13.5 8.5h-2.5v1h2.5zm-8.5-2.5h-1v6h1zm3.54 0h-2.54v6h2.51c.27 0 .49-.32.49-.73v-4.58c0-.39-.2-.69-.46-.69zm-1.54 1h1v4h-1z"/></g></svg>

<!-- by TradingView --><svg width="18" height="18" viewBox="0 0 18 18" xmlns="http://www.w3.org/2000/svg"><path fill="#F0F3FA" d="M0 0h18v18H0z"/><path d="M15 5.21H3v7.83h12V5.21Z" fill="#BF1E2D"/><path d="M11 6h-1v6h1V6ZM14 6h-1v6h1V6Z" fill="#F0F3FA"/><path d="M13.5 8.5H11v1h2.5v-1ZM5 6H4v6h1V6ZM8.54 6H6v6h2.51c.27 0 .49-.32.49-.73V6.69C9 6.3 8.8 6 8.54 6ZM7 7h1v4H7V7Z" fill="#F0F3FA"/></svg>
